X:1
T:The Panda
C:Gordon Duncan
R:Jig
M:6/8
L:1/8
K:Hp
{g}c{d}A{e}A d{e}A{d}A | e{g}e{A}e {g}edc | {g}cd{c}d {e}GdG | {g}cde {g}edB |
{g}c{d}A{e}A d{e}A{d}A | e{g}e{A}e {g}edc | {g}cd{c}d {g}edB | {g}BAG {gAGAG}A3 :|
g{a}e{A}e {g}efg | aea g{a}e{A}e | {g}cd{c}d {e}GdG | {g}cde {g}edB |
[1 g{a}e{A}e {g}efg | aea g{a}e{A}e | {g}cd{c}d {g}edB | {g}BAG {gAGAG}A3 :|
[2 {g}c{d}A{e}A d{e}A{d}A | e{g}e{A}e {g}edc | {g}cd{c}d {g}edB | {g}BAG {gAGAG}A3 :|]
